assets/icon-zoom.svg

<svg

  focusable="false"
  class="icon icon-plus"


  viewBox="0 0 19 19"
  fill="none"
  xmlns="http://www.w3.org/2000/svg"
>
  <path fill-rule="evenodd" clip-rule="evenodd" d="M4.66724 7.93978C4.66655 7.66364 4.88984 7.43922 5.16598 7.43853L10.6996 7.42464C10.9758 7.42395 11.2002 7.64724 11.2009 7.92339C11.2016 8.19953 10.9783 8.42395 10.7021 8.42464L5.16849 8.43852C4.89235 8.43922 4.66793 8.21592 4.66724 7.93978Z" fill="currentColor"/>
  <path fill-rule="evenodd" clip-rule="evenodd" d="M7.92576 4.66463C8.2019 4.66394 8.42632 4.88723 8.42702 5.16337L8.4409 10.697C8.44159 10.9732 8.2183 11.1976 7.94215 11.1983C7.66601 11.199 7.44159 10.9757 7.4409 10.6995L7.42702 5.16588C7.42633 4.88974 7.64962 4.66532 7.92576 4.66463Z" fill="currentColor"/>
  <path fill-rule="evenodd" clip-rule="evenodd" d="M12.8324 3.03011C10.1255 0.323296 5.73693 0.323296 3.03011 3.03011C0.323296 5.73693 0.323296 10.1256 3.03011 12.8324C5.73693 15.5392 10.1255 15.5392 12.8324 12.8324C15.5392 10.1256 15.5392 5.73693 12.8324 3.03011ZM2.32301 2.32301C5.42035 -0.774336 10.4421 -0.774336 13.5395 2.32301C16.6101 5.39361 16.6366 10.3556 13.619 13.4588L18.2473 18.0871C18.4426 18.2824 18.4426 18.599 18.2473 18.7943C18.0521 18.9895 17.7355 18.9895 17.5402 18.7943L12.8778 14.1318C9.76383 16.6223 5.20839 16.4249 2.32301 13.5395C-0.774335 10.4421 -0.774335 5.42035 2.32301 2.32301Z" fill="currentColor"/>
</svg>

<svg xmlns="http://www.w3.org/2000/svg" fill="none" class="icon icon-plus" viewBox="0 0 19 19"><path fill="currentColor" fill-rule="evenodd" d="M4.667 7.94a.5.5 0 0 1 .499-.501l5.534-.014a.5.5 0 1 1 .002 1l-5.534.014a.5.5 0 0 1-.5-.5" clip-rule="evenodd"/><path fill="currentColor" fill-rule="evenodd" d="M7.926 4.665a.5.5 0 0 1 .501.498l.014 5.534a.5.5 0 1 1-1 .003l-.014-5.534a.5.5 0 0 1 .499-.501" clip-rule="evenodd"/><path fill="currentColor" fill-rule="evenodd" d="M12.832 3.03a6.931 6.931 0 1 0-9.802 9.802 6.931 6.931 0 0 0 9.802-9.802M2.323 2.323a7.931 7.931 0 0 1 11.296 11.136l4.628 4.628a.5.5 0 0 1-.707.707l-4.662-4.662A7.932 7.932 0 0 1 2.323 2.323" clip-rule="evenodd"/></svg>
